mimes/scalable/application-x-trash.svg

<?xml version="1.0" encoding="UTF-8" standalone="no"?>
<svg
   xmlns:dc="http://purl.org/dc/elements/1.1/"
   xmlns:cc="http://creativecommons.org/ns#"
   xmlns:rdf="http://www.w3.org/1999/02/22-rdf-syntax-ns#"
   xmlns:svg="http://www.w3.org/2000/svg"
   xmlns="http://www.w3.org/2000/svg"
   xmlns:sodipodi="http://sodipodi.sourceforge.net/DTD/sodipodi-0.dtd"
   xmlns:inkscape="http://www.inkscape.org/namespaces/inkscape"
   width="48"
   height="48"
   viewBox="0 0 12.7 12.7"
   version="1.1"
   id="svg4"
   sodipodi:docname="application-x-trash.svg"
   inkscape:version="0.92.3 (2405546, 2018-03-11)">
  <metadata
     id="metadata10">
    <rdf:RDF>
      <cc:Work
         rdf:about="">
        <dc:format>image/svg+xml</dc:format>
        <dc:type
           rdf:resource="http://purl.org/dc/dcmitype/StillImage" />
        <dc:title></dc:title>
      </cc:Work>
    </rdf:RDF>
  </metadata>
  <defs
     id="defs8" />
  <sodipodi:namedview
     pagecolor="#ffffff"
     bordercolor="#666666"
     borderopacity="1"
     objecttolerance="10"
     gridtolerance="10"
     guidetolerance="10"
     inkscape:pageopacity="0"
     inkscape:pageshadow="2"
     inkscape:window-width="1366"
     inkscape:window-height="715"
     id="namedview6"
     showgrid="false"
     showguides="true"
     inkscape:guide-bbox="true"
     inkscape:snap-global="true"
     inkscape:zoom="10.979167"
     inkscape:cx="24"
     inkscape:cy="24"
     inkscape:window-x="0"
     inkscape:window-y="27"
     inkscape:window-maximized="1"
     inkscape:current-layer="svg4" />
  <path
     inkscape:connector-curvature="0"
     style="opacity:1;fill:#426e54;fill-opacity:1;fill-rule:nonzero;stroke:none;stroke-width:0.50711805;stroke-linecap:round;stroke-linejoin:bevel;stroke-miterlimit:4;stroke-dasharray:none;stroke-opacity:1"
     d="m 7.3492433,0.0566603 c -0.040983,0 -0.078161,0.0127642 -0.1049033,0.0330729 C 7.218411,0.1094229 7.202933,0.1367362 7.201965,0.1667311 7.3445127,0.2235372 7.4736634,0.30302596 7.5802366,0.40909358 7.76971,0.59766786 7.8931916,0.85276088 7.9104491,1.1392812 h 0.00672 v 0.068213 0.1441772 0.1369425 0.1927531 c 0,0.2812905 0.2266883,0.5079794 0.5079795,0.5079794 h 0.1183391 l -5.291e-4,0.00568 h 1.6924064 c 0.329951,0 0.613684,0.1491999 0.819072,0.3731038 V 1.141865 0.56463964 c 0,-0.14064565 -0.05654,-0.26789289 -0.148312,-0.35966798 C 10.814345,0.11319656 10.687101,0.0566603 10.546455,0.0566603 H 9.0462851 7.7864139 Z"
     id="path965" />
  <path
     style="opacity:1;fill:#333333;fill-opacity:1;fill-rule:nonzero;stroke:none;stroke-width:0.50711805;stroke-linecap:round;stroke-linejoin:bevel;stroke-miterlimit:4;stroke-dasharray:none;stroke-opacity:1"
     d="m 2.9460732,0.55206094 c -0.6285519,0 -1.134298,0.50626306 -1.134298,1.13481446 v 9.9012056 c 0,0.628551 0.5057461,1.134814 1.134298,1.134814 h 4.2855261 2.522327 c 0.6285527,0 1.1342987,-0.506263 1.1342987,-1.134814 V 3.6728008 h -0.01292 C 10.810197,3.1070068 10.337709,2.6687276 9.7539263,2.6687276 h -1.692403 v 0 l -0.11781,-0.00568 C 7.6627483,2.6495013 7.4357343,2.4363589 7.4357343,2.1550682 V 1.9623107 1.8253682 1.6811909 1.612978 h -0.0067 C 7.3941823,1.0346118 6.9321933,0.5804805 6.3510473,0.55464473 l -5.29e-4,-0.002585 h -0.02015 z"
     id="path833"
     inkscape:connector-curvature="0" />
  <path
     style="opacity:1;fill:#cccccc;fill-opacity:1;fill-rule:nonzero;stroke:none;stroke-width:0.50711805;stroke-linecap:round;stroke-linejoin:bevel;stroke-miterlimit:4;stroke-dasharray:none;stroke-opacity:1"
     d="m 6.4269983,1.0791605 c 0.263277,0.019482 0.470254,0.2359637 0.470255,0.504362 v 0.2563151 0.125057 0.092501 c 0,0.5757933 0.427721,1.0388807 0.982369,1.1136271 v 0 l 1.962134,0.026872 c 0.2812647,0.00385 0.5079787,0.2266886 0.5079797,0.5079793 V 5.7894678 11.68575 c 0,0.281291 -0.226688,0.50798 -0.5079797,0.50798 H 7.2315993 2.8582236 c -0.281291,0 -0.50798,-0.226689 -0.50798,-0.50798 V 1.5892069 c 0,-0.2812907 0.226689,-0.5079794 0.50798,-0.5079794 h 3.5692907 z"
     id="path901-5"
     inkscape:connector-curvature="0" />
  <path
     inkscape:connector-curvature="0"
     style="line-height:normal;text-indent:0;text-align:start;text-decoration:none;text-decoration-line:none;text-transform:none;fill:#426e54;fill-opacity:1;stroke-width:0.26458332;marker:none"
     d="m 7.3333895,4.8674314 c -0.522432,0.00223 -1.0448779,0.0045 -1.5682012,0.0074 0.2071903,-0.0078 0.3996459,0.1795237 0.5861173,0.4564462 0.1659752,0.2847199 0.3225238,0.5800394 0.4577546,0.8950582 L 6.2603639,6.5422383 7.8520625,6.694533 8.5217242,5.2403353 7.9678063,5.558849 C 7.8172031,5.2522961 7.6247931,4.9977603 7.3333895,4.8674314 Z M 5.6820789,4.9792594 C 5.6085592,4.9939631 5.5484666,5.0259851 5.5032411,5.0745523 5.135645,5.4350193 4.9107814,5.7956117 4.7265377,6.1554104 5.0718553,6.3534667 5.4166021,6.5519617 5.7621424,6.7497951 L 6.4692254,5.7585735 A 9.1177211,9.1177211 0 0 0 6.2629745,5.3865392 C 6.1716325,5.2515311 5.9965754,5.0119462 5.8152279,4.9818702 l -0.055261,-0.00261 z M 8.54261,6.6853962 C 8.2008575,6.8894677 7.8585436,7.0928919 7.5170136,7.2971862 l 0.050909,0.109217 0.00609,-0.0087 v 0.021757 l 0.4090234,0.870253 c 0.1650839,0.00602 0.3309509,0.00656 0.4964809,0.00478 0.1715447,-0.014258 0.4900235,-0.053381 0.5891626,-0.2171287 0.00379,-0.0058 0.00624,-0.011178 0.00957,-0.016969 l 0.040029,-0.072229 a 0.32303901,0.32303901 0 0 0 -0.013921,-0.09616 C 8.9702432,7.3951961 8.766064,7.0229179 8.5426103,6.6853977 Z M 5.1046641,6.8568366 3.5295005,7.1453264 4.1090911,7.4146708 C 3.945121,7.714763 3.8479099,8.0180366 3.908062,8.3310503 4.2110503,8.7579074 4.5131753,9.1841382 4.8166092,9.6103262 4.691181,9.4454652 4.7341821,9.1801212 4.8535951,8.8679981 4.990831,8.5692428 5.1420153,8.2713366 5.3213576,7.9785967 l 0.574369,0.2676035 z M 7.4730656,7.724917 6.5610374,9.037698 7.5004787,10.334817 7.4939487,9.6960469 C 7.8345882,9.7149769 8.1508356,9.6717769 8.4081532,9.4824002 8.662131,9.0252425 8.9160787,8.5682333 9.1704996,8.1117458 9.0744784,8.2957666 8.8162634,8.3717608 8.483867,8.398495 8.1541446,8.4042875 7.8206766,8.3943311 7.4795919,8.3584634 Z M 5.1533982,8.4894367 c -0.071292,0.1376815 -0.1390216,0.2773264 -0.204075,0.4194635 -0.061712,0.1610741 -0.1638971,0.465542 -0.058743,0.625278 0.00357,0.0059 0.00752,0.01075 0.011313,0.0161 l 0.049605,0.06919 c 0.041884,0.02985 0.086779,0.04641 0.1344544,0.05309 0.5063915,0.09402 0.9302655,0.06985 1.3310569,0.01392 C 6.380473,9.2901402 6.3434694,8.8933826 6.3064869,8.4972704 Z"
     id="path856" />
</svg>

<?xml version="1.0" encoding="UTF-8" standalone="no"?><svg xmlns:dc="http://purl.org/dc/elements/1.1/" xmlns:cc="http://creativecommons.org/ns#" xmlns:rdf="http://www.w3.org/1999/02/22-rdf-syntax-ns#" xmlns="http://www.w3.org/2000/svg" width="48" height="48" viewBox="0 0 12.7 12.7"><metadata><rdf:RDF><cc:Work><dc:format>image/svg+xml</dc:format><dc:type rdf:resource="http://purl.org/dc/dcmitype/StillImage"/><dc:title/></cc:Work></rdf:RDF></metadata><path d="M7.35.06a.17.17 0 0 0-.1.03.1.1 0 0 0-.05.08 1.12 1.12 0 0 1 .71.97v.55c0 .27.23.5.52.5h1.81c.33 0 .6.15.81.38V.56a.5.5 0 0 0-.5-.5H7.79z" fill="#426e54"/><path d="M2.95.55c-.63 0-1.14.5-1.14 1.14v9.9c0 .63.5 1.13 1.14 1.13H9.75c.63 0 1.14-.5 1.14-1.13V3.67h-.01c-.07-.56-.54-1-1.13-1H7.94a.52.52 0 0 1-.5-.51V1.6h-.01A1.12 1.12 0 0 0 6.35.55h-.02z" fill="#333"/><path d="M6.43 1.08a.5.5 0 0 1 .47.5v.48c0 .57.42 1.04.98 1.11l1.96.03c.28 0 .51.22.51.5v7.99a.5.5 0 0 1-.5.5H2.85a.5.5 0 0 1-.51-.5V1.59c0-.28.23-.5.5-.5h3.58z" fill="#ccc"/><path style="line-height:normal;text-indent:0;text-align:start;text-decoration-line:none;text-transform:none;marker:none" d="M7.33 4.87H5.77c.2 0 .4.18.58.46.17.29.32.58.46.9l-.55.31 1.6.15.66-1.45-.55.32c-.15-.3-.35-.56-.64-.7zm-1.65.1a.32.32 0 0 0-.18.1c-.36.37-.59.73-.77 1.09l1.03.59.7-1a9.12 9.12 0 0 0-.2-.36c-.09-.14-.26-.38-.44-.4l-.06-.01zM8.54 6.7l-1.02.6.05.12V7.4v.02l.41.87h.5c.17-.01.49-.05.59-.21v-.02l.05-.07a.32.32 0 0 0-.02-.1 4 4 0 0 0-.56-1.2zm-3.44.17l-1.57.29.58.26c-.16.3-.26.6-.2.92l.9 1.28c-.12-.16-.08-.43.04-.74.14-.3.3-.6.47-.9l.58.28zm2.37.86l-.9 1.32.93 1.3V9.7c.33.01.65-.03.9-.22l.77-1.37c-.1.19-.35.26-.69.29-.33 0-.66 0-1-.04zm-2.32.77a9.6 9.6 0 0 0-.2.42c-.06.16-.16.46-.06.62l.01.02.05.07a.3.3 0 0 0 .14.05c.5.1.93.07 1.33.02l-.11-1.2z" fill="#426e54"/></svg>
